www/assets/icons/dry_cleaning.svg

<svg width="24" height="24" viewBox="0 0 24 24" xmlns="http://www.w3.org/2000/svg" fill='currentColor'><path d="M19.56 11.3612L13 8.44116V7.00116C13 6.45116 12.55 6.00116 12 6.00116C11.45 6.00116 11 5.55116 11 5.00116C11 4.45116 11.45 4.00116 12 4.00116C12.55 4.00116 13 4.45116 13 5.00116H15C15 3.16116 13.34 1.70116 11.44 2.05116C10.26 2.27116 9.29 3.22116 9.06 4.40116C8.76 5.96116 9.66 7.34116 11 7.82116V8.45116L4.44 11.3712C3.56 11.7512 3 12.6212 3 13.5712V13.5812C3 14.9212 4.08 16.0012 5.42 16.0012H7V22.0012H17V16.0012H18.58C19.92 16.0012 21 14.9212 21 13.5812V13.5712C21 12.6212 20.44 11.7512 19.56 11.3612ZM18.58 14.0012H17V13.0012H7V14.0012H5.42C5.19 14.0012 5 13.8112 5 13.5712C5 13.4012 5.1 13.2512 5.25 13.1912L12 10.1912L18.75 13.1912C18.9 13.2612 19 13.4112 19 13.5812C19 13.8112 18.81 14.0012 18.58 14.0012Z"/></svg>

<svg xmlns="http://www.w3.org/2000/svg" width="24" height="24" viewBox="0 0 24 24" fill='currentColor'><path d="M19.56 11.361 13 8.441v-1.44c0-.55-.45-1-1-1s-1-.45-1-1 .45-1 1-1 1 .45 1 1h2c0-1.84-1.66-3.3-3.56-2.95-1.18.22-2.15 1.17-2.38 2.35-.3 1.56.6 2.94 1.94 3.42v.63l-6.56 2.92c-.88.38-1.44 1.25-1.44 2.2v.01c0 1.34 1.08 2.42 2.42 2.42H7v6h10v-6h1.58c1.34 0 2.42-1.08 2.42-2.42v-.01c0-.95-.56-1.82-1.44-2.21m-.98 2.64H17v-1H7v1H5.42c-.23 0-.42-.19-.42-.43 0-.17.1-.32.25-.38l6.75-3 6.75 3a.423.423 0 0 1-.17.81"/></svg>
